X: 40423
T: Tom Mhic's
R: polka
M: 2/4
K: Dmajor
DE FA|BA FD|EF GE|BA FA|
DE FA|BA FD|EF GC|ED D2:|
d2 c2|BA FA|B2 B>c|BA FA|
d2 c2|BA FA|EF GC|ED D2|
d2 c2|BA FA|B2 B>c|BA FA|
d2 c2|BA FD|EF GC|ED D2|

